16x16/actions/view-object-histogram-logarithmic.svg

<svg viewBox="0 0 16 16" xmlns="http://www.w3.org/2000/svg"><path d="m2 2v12h12v-1h-1v-5h-1v-2h-1v3h-1v-2h-1v-2h-1v-3h-1v2h-1v2h-1v1h-1v1h-1v-6z" fill="#8b9cbe"/></svg>

<svg xmlns="http://www.w3.org/2000/svg" viewBox="0 0 16 16"><path style="fill:currentColor;fill-opacity:1;stroke:none;color:#8b9cbe" d="M2 2v12h12v-1h-1V8h-1V6h-1v3h-1V7H9V5H8V2H7v2H6v2H5v1H4v1H3V2H2z"/></svg>
